icon-themes/sifr_svg/cmd/lc_actionmode.svg

<svg viewBox="0 0 24 24" xmlns="http://www.w3.org/2000/svg"><path d="m5 2-1 2-2 1 2 1 1 2 1-2 2-1-2-1zm7 0-4 8h-6l5 5-2 7 5.576172-3.185547c-.0899-.07907-.180839-.150842-.269531-.236328l-.306641-.294922v-3.283203h3.001953l.300781.400391c.283558.378077.72467.59924 1.197266.599609.839612 0 1.498964-.658719 1.5-1.498047-.000738-.47218-.221864-.913959-.599609-1.197265l-.400391-.300782v-2.003906-1h1zm3 0c-.552285 0-1 .4477153-1 1s.447715 1 1 1 1-.4477153 1-1-.447715-1-1-1zm6 2c-.552285 0-1 .4477153-1 1s.447715 1 1 1 1-.4477153 1-1-.447715-1-1-1zm-4 2c-.552285 0-1 .4477153-1 1s.447715 1 1 1 1-.4477153 1-1-.447715-1-1-1zm-53.5 3-.5 2-2 .5 2 .5.5 2 .5-2 2-.5-2-.5zm6 0c-.276142 0-.5.2238576-.5.5s.223858.5.5.5.5-.2238576.5-.5-.223858-.5-.5-.5zm-1.5 1-2 5h-4l2.789062 2.574219-1.789062 4.425781 5-2v-1h3v-3h1.916016l1.083984-1h-4zm5.5 0c-.276142 0-.5.223858-.5.5s.223858.5.5.5.5-.223858.5-.5-.223858-.5-.5-.5zm42.5 1v1.503906c.628416.471311.998772 1.210576 1 1.996094 0 1.380712-1.119288 2.5-2.5 2.5-.786206-.000614-1.526324-.371035-1.998047-1h-1.501953v1.857422c1.371429 1.321851 2.804414 1.714844 4.115234 1.714844h2.742188l3.427734 3.427734h1.714844v-1.714844l-3.427734-3.427734v-2.742188c0-1.511964-.368607-2.743805-1.714844-4.115234zm-45.5 1c-.276142 0-.5.223858-.5.5s.223858.5.5.5.5-.223858.5-.5-.223858-.5-.5-.5zm1.5 5v1c1.560655 1.623957-.566483 3.497742-2 2h-1v1c.8.77108 1.635355 1 2.400391 1h1.599609l2 2h1v-1l-2-2v-1.599609c0-.88237-.214695-1.600391-1-2.400391z" fill="#555753"/></svg>

<svg xmlns="http://www.w3.org/2000/svg" viewBox="0 0 24 24">
  <path
     style="fill:#555753"
     d="M 5 2 L 4 4 L 2 5 L 4 6 L 5 8 L 6 6 L 8 5 L 6 4 L 5 2 z M 12 2 L 8 10 L 2 10 L 7 15 L 5 22 L 10.576172 18.814453 C 10.486272 18.735383 10.395333 18.663611 10.306641 18.578125 L 10 18.283203 L 10 15 L 13.001953 15 L 13.302734 15.400391 C 13.586292 15.778468 14.027404 15.999631 14.5 16 C 15.339612 16 15.998964 15.341281 16 14.501953 C 15.999262 14.029773 15.778136 13.587994 15.400391 13.304688 L 15 13.003906 L 15 11 L 15 10 L 16 10 L 12 2 z M 15 2 C 14.447715 2 14 2.4477153 14 3 C 14 3.5522847 14.447715 4 15 4 C 15.552285 4 16 3.5522847 16 3 C 16 2.4477153 15.552285 2 15 2 z M 21 4 C 20.447715 4 20 4.4477153 20 5 C 20 5.5522847 20.447715 6 21 6 C 21.552285 6 22 5.5522847 22 5 C 22 4.4477153 21.552285 4 21 4 z M 17 6 C 16.447715 6 16 6.4477153 16 7 C 16 7.5522847 16.447715 8 17 8 C 17.552285 8 18 7.5522847 18 7 C 18 6.4477153 17.552285 6 17 6 z M -36.5 9 L -37 11 L -39 11.5 L -37 12 L -36.5 14 L -36 12 L -34 11.5 L -36 11 L -36.5 9 z M -30.5 9 C -30.776142 9 -31 9.2238576 -31 9.5 C -31 9.7761424 -30.776142 10 -30.5 10 C -30.223858 10 -30 9.7761424 -30 9.5 C -30 9.2238576 -30.223858 9 -30.5 9 z M -32 10 L -34 15 L -38 15 L -35.210938 17.574219 L -37 22 L -32 20 L -32 19 L -29 19 L -29 16 L -27.083984 16 L -26 15 L -30 15 L -32 10 z M -26.5 10 C -26.776142 10 -27 10.223858 -27 10.5 C -27 10.776142 -26.776142 11 -26.5 11 C -26.223858 11 -26 10.776142 -26 10.5 C -26 10.223858 -26.223858 10 -26.5 10 z M 16 11 L 16 12.503906 C 16.628416 12.975217 16.998772 13.714482 17 14.5 C 17 15.880712 15.880712 17 14.5 17 C 13.713794 16.999386 12.973676 16.628965 12.501953 16 L 11 16 L 11 17.857422 C 12.371429 19.179273 13.804414 19.572266 15.115234 19.572266 L 17.857422 19.572266 L 21.285156 23 L 23 23 L 23 21.285156 L 19.572266 17.857422 L 19.572266 15.115234 C 19.572266 13.60327 19.203659 12.371429 17.857422 11 L 16 11 z M -29.5 12 C -29.776142 12 -30 12.223858 -30 12.5 C -30 12.776142 -29.776142 13 -29.5 13 C -29.223858 13 -29 12.776142 -29 12.5 C -29 12.223858 -29.223858 12 -29.5 12 z M -28 17 L -28 18 C -26.439345 19.623957 -28.566483 21.497742 -30 20 L -31 20 L -31 21 C -30.2 21.77108 -29.364645 22 -28.599609 22 L -27 22 L -25 24 L -24 24 L -24 23 L -26 21 L -26 19.400391 C -26 18.518021 -26.214695 17.8 -27 17 L -28 17 z "
     />
</svg>
